**harmony	**harte	**kern	**silbe	**rhyme	**timestamp	**phrase
*M4/4	*M4/4	*ICvox	*	*	*	*
*	*	*VRlead	*	*	*	*
*	*	*Hstimme	*	*	*	*
*D-:	*D-:	*D-:	*	*	*	*
*	*	*M4/4	*	*	*	*
*	*	*clefG2	*	*	*	*
1r;	1r	r;	.	.	0	.
=1	=1	=1	=1	=1	=1	=1
*>Letter>A	*>Letter>A	*>Letter>A	*>Letter>A	*>Letter>A	*>Letter>A	*>Letter>A
*>Label>Intro	*>Label>Intro	*>Label>Intro	*>Label>Intro	*>Label>Intro	*>Label>Intro	*>Label>Intro
1C-M	C-:maj	1r	.	.	0.348	newline
=2	=2	=2	=2	=2	=2	=2
1D-M	D-:maj	1r	.	.	1.543	.
=3	=3	=3	=3	=3	=3	=3
1D-M	D-:maj	2r	.	.	2.737	.
.	.	4f	On	.	.	.
.	.	8e	a	.	.	.
.	.	[8f	Mon-	.	.	.
=4	=4	=4	=4	=4	=4	=4
*>Letter>B	*>Letter>B	*>Letter>B	*>Letter>B	*>Letter>B	*>Letter>B	*>Letter>B
*>Label>Verse	*>Label>Verse	*>Label>Verse	*>Label>Verse	*>Label>Verse	*>Label>Verse	*>Label>Verse
1D-M	D-:maj	8f]	_	.	3.931	newline
.	.	[8d-	-day	.	.	.
.	.	4d-]	_	.	.	.
.	.	2r	.	.	.	.
=5	=5	=5	=5	=5	=5	=5
1D-M	D-:maj	2f	I	.	5.114	.
.	.	4g-	was	.	.	.
.	.	8f	ar-	(a	.	.
.	.	[8a-	-res-	A	.	.
=6	=6	=6	=6	=6	=6	=6
1A-M	A-:maj	8a-]	_	.	6.297	.
.	.	[8e-	-ted	a)	.	.
.	.	4e-]	_	.	.	.
.	.	2r	.	.	.	.
=7	=7	=7	=7	=7	=7	=7
1A-M	A-:maj	2r	.	.	7.48	.
.	.	4g-	On	.	.	.
.	.	8f	a	.	.	.
.	.	[8g-	Tues-	.	.	.
=8	=8	=8	=8	=8	=8	=8
1A-M	A-:maj	8g-]	_	.	8.663	newline
.	.	[8e-	-day	.	.	.
.	.	4e-]	_	.	.	.
.	.	4r	.	.	.	.
.	.	4a-	They	.	.	.
=9	=9	=9	=9	=9	=9	=9
1A-M	A-:maj	4a-	locked	.	9.808	.
.	.	8r	.	.	.	.
.	.	[8a-	me	.	.	.
.	.	8a-]	_	.	.	.
.	.	8g-	in	.	.	.
.	.	8c	the	.	.	.
.	.	[8d-	jail	B	.	.
=10	=10	=10	=10	=10	=10	=10
1D-M	D-:maj	2d-]	_	.	10.954	.
.	.	2r	.	.	.	.
=11	=11	=11	=11	=11	=11	=11
1D-M	D-:maj	2r	.	.	12.099	.
.	.	4f	On	.	.	.
.	.	8e	a	.	.	.
.	.	[8f	Wednes-	.	.	.
=12	=12	=12	=12	=12	=12	=12
1D-M	D-:maj	8f]	_	.	13.245	newline
.	.	[8d-	-day	.	.	.
.	.	4d-]	_	.	.	.
.	.	4r	.	.	.	.
.	.	4f	My	.	.	.
=13	=13	=13	=13	=13	=13	=13
1D-M	D-:maj	2f	trial	.	14.408	.
.	.	4f	was	.	.	.
.	.	8g-	at-	(a	.	.
.	.	[8a-	-tes-	A	.	.
=14	=14	=14	=14	=14	=14	=14
1A-M	A-:maj	8a-]	_	.	15.572	.
.	.	8e-	-ted	a)	.	.
.	.	4r	.	.	.	.
.	.	2r	.	.	.	.
=15	=15	=15	=15	=15	=15	=15
1A-M	A-:maj	2r	.	.	16.736	.
.	.	4g-	On	.	.	.
.	.	8f	a	.	.	.
.	.	[8g-	Thurs-	.	.	.
=16	=16	=16	=16	=16	=16	=16
1A-M	A-:maj	4g-]	_	.	17.899	newline
.	.	8e-	-day	.	.	.
.	.	4e-	they	.	.	.
.	.	[8e-	said	.	.	.
.	.	4e-]	_	.	.	.
=17	=17	=17	=17	=17	=17	=17
1A-M	A-:maj	4g-	guil-	.	19.046	.
.	.	4e-	-ty	.	.	.
.	.	4e-	and	.	.	.
.	.	8e-	the	.	.	.
.	.	[8a-	jud-	.	.	.
=18	=18	=18	=18	=18	=18	=18
1A-M	A-:maj	4a-]	_	.	20.193	.
.	.	4a-	-ges's	.	.	.
.	.	8f	ga-	.	.	.
.	.	4c	-vel	.	.	.
.	.	[8d-	fell	B	.	.
=19	=19	=19	=19	=19	=19	=19
1D-M	D-:maj	4d-]	_	.	21.339	.
.	.	4r	.	.	.	.
.	.	8f	I	.	.	.
.	.	4.f	got	.	.	.
=20	=20	=20	=20	=20	=20	=20
*>Letter>C	*>Letter>C	*>Letter>C	*>Letter>C	*>Letter>C	*>Letter>C	*>Letter>C
*>Label>Chorus	*>Label>Chorus	*>Label>Chorus	*>Label>Chorus	*>Label>Chorus	*>Label>Chorus	*>Label>Chorus
1D-M	D-:maj	2d-	stripes	.	22.486	newline
.	.	2r	.	.	.	.
=21	=21	=21	=21	=21	=21	=21
1D-M	D-:maj	4f	Stripes	.	23.654	.
.	.	8f	a-	.	.	.
.	.	[8f	-round	.	.	.
.	.	4f]	_	.	.	.
.	.	4g-	my	.	.	.
=22	=22	=22	=22	=22	=22	=22
1A-M	A-:maj	2a-	shoul-	.	24.822	.
.	.	[2e-	-ders	.	.	.
=23	=23	=23	=23	=23	=23	=23
1A-M	A-:maj	4e-]	_	.	25.989	.
.	.	4r	.	.	.	.
.	.	8g-	I	.	.	.
.	.	4.g-	got	.	.	.
=24	=24	=24	=24	=24	=24	=24
1A-M	A-:maj	2e-	chains	.	27.157	newline
.	.	2r	.	.	.	.
=25	=25	=25	=25	=25	=25	=25
1A-M	A-:maj	4a-	Chains	.	28.303	.
.	.	8a-	a-	.	.	.
.	.	[8a-	-round	.	.	.
.	.	4a-]	_	.	.	.
.	.	4a-	my	.	.	.
=26	=26	=26	=26	=26	=26	=26
1D-M	D-:maj	[1a-	feet	.	29.448	.
=27	=27	=27	=27	=27	=27	=27
1D-M	D-:maj	4a-]	_	.	30.594	.
.	.	4r	.	.	.	.
.	.	8f	I	.	.	.
.	.	4.f	got	.	.	.
=28	=28	=28	=28	=28	=28	=28
1D-M	D-:maj	2d-	stripes	.	31.74	newline
.	.	2r	.	.	.	.
=29	=29	=29	=29	=29	=29	=29
1D-M	D-:maj	4f	Stripes	.	32.932	.
.	.	8f	a-	.	.	.
.	.	[8f	-round	.	.	.
.	.	4f]	_	.	.	.
.	.	4g-	my	.	.	.
=30	=30	=30	=30	=30	=30	=30
1A-M	A-:maj	2a-	shoul-	.	34.124	.
.	.	[2e-	-ders	.	.	.
=31	=31	=31	=31	=31	=31	=31
1A-M	A-:maj	4e-]	_	.	35.316	.
.	.	4r	.	.	.	.
.	.	8e-	And	.	.	.
.	.	4.f	them	.	.	.
=32	=32	=32	=32	=32	=32	=32
1A-M	A-:maj	2g-	chains	.	36.508	newline
.	.	2e-	them	.	.	.
=33	=33	=33	=33	=33	=33	=33
1A-M	A-:maj	2g-	chains	.	37.684	.
.	.	2e-	they're	.	.	.
=34	=34	=34	=34	=34	=34	=34
1A-M	A-:maj	4a-	'bout	.	38.86	.
.	.	8a-	to	.	.	.
.	.	[8a-	drag	.	.	.
.	.	4a-]	_	.	.	.
.	.	4c	me	.	.	.
=35	=35	=35	=35	=35	=35	=35
1D-M	D-:maj	4d-	down	.	40.037	.
.	.	4r	.	.	.	.
.	.	4.f	On	.	.	.
.	.	8e	a	.	.	.
=36	=36	=36	=36	=36	=36	=36
*>Letter>B	*>Letter>B	*>Letter>B	*>Letter>B	*>Letter>B	*>Letter>B	*>Letter>B
*>Label>Verse	*>Label>Verse	*>Label>Verse	*>Label>Verse	*>Label>Verse	*>Label>Verse	*>Label>Verse
1D-M	D-:maj	8f	Mon-	.	41.213	newline
.	.	[8d-	-day	.	.	.
.	.	4d-]	_	.	.	.
.	.	2r	.	.	.	.
=37	=37	=37	=37	=37	=37	=37
1D-M	D-:maj	4f	Got	.	42.364	.
.	.	4f	my	.	.	.
.	.	4f	stri-	.	.	.
.	.	8f	-ped	.	.	.
.	.	[8a-	brit-	(C	.	.
=38	=38	=38	=38	=38	=38	=38
1A-M	A-:maj	8a-]	_	.	43.516	.
.	.	[8e-	-ches	c)	.	.
.	.	4e-]	_	.	.	.
.	.	2r	.	.	.	.
=39	=39	=39	=39	=39	=39	=39
1A-M	A-:maj	2r	.	.	44.667	.
.	.	4g-	On	.	.	.
.	.	8f	a	.	.	.
.	.	[8g-	Tues-	.	.	.
=40	=40	=40	=40	=40	=40	=40
1A-M	A-:maj	8g-]	_	.	45.818	newline
.	.	[8e-	-day	.	.	.
.	.	4e-]	_	.	.	.
.	.	2r	.	.	.	.
=41	=41	=41	=41	=41	=41	=41
1A-M	A-:maj	4a-	Got	.	46.974	.
.	.	8a-	my	.	.	.
.	.	[8a-	ball	.	.	.
.	.	4a-]	_	.	.	.
.	.	4c	and	.	.	.
=42	=42	=42	=42	=42	=42	=42
1D-M	D-:maj	2d-	chain	D	48.129	.
.	.	2r	.	.	.	.
=43	=43	=43	=43	=43	=43	=43
1D-M	D-:maj	2r	.	.	49.284	.
.	.	4f	On	.	.	.
.	.	8e	a	.	.	.
.	.	[8f	Wednes-	.	.	.
=44	=44	=44	=44	=44	=44	=44
1D-M	D-:maj	8f]	_	.	50.44	newline
.	.	[8d-	-day	.	.	.
.	.	4d-]	_	.	.	.
.	.	4r	.	.	.	.
.	.	4f	I'm	.	.	.
=45	=45	=45	=45	=45	=45	=45
1D-M	D-:maj	4f	work-	.	51.607	.
.	.	4f	-ing	.	.	.
.	.	8f	dig-	.	.	.
.	.	4g-	-gin'	.	.	.
.	.	[8a-	dit-	(C	.	.
=46	=46	=46	=46	=46	=46	=46
1A-M	A-:maj	8a-]	_	.	52.775	.
.	.	[8e-	-ches	c)	.	.
.	.	4e-]	_	.	.	.
.	.	2r	.	.	.	.
=47	=47	=47	=47	=47	=47	=47
1A-M	A-:maj	2r	.	.	53.943	.
.	.	4e-	On	.	.	.
.	.	8f	a	.	.	.
.	.	[8g-	Thurs-	.	.	.
=48	=48	=48	=48	=48	=48	=48
1A-M	A-:maj	4g-]	_	.	55.111	newline
.	.	8e-	-day	.	.	.
.	.	4e-	Lord	.	.	.
.	.	[8e-	I	.	.	.
.	.	4e-]	_	.	.	.
=49	=49	=49	=49	=49	=49	=49
1A-M	A-:maj	4g-	begged	.	56.25	.
.	.	4e-	them	.	.	.
.	.	4e-	not	.	.	.
.	.	8e-	to	.	.	.
.	.	[8a-	knock	.	.	.
=50	=50	=50	=50	=50	=50	=50
1A-M	A-:maj	4a-]	_	.	57.389	.
.	.	8a-	me	.	.	.
.	.	[8a-	down	.	.	.
.	.	4a-]	_	.	.	.
.	.	4c	a-	.	.	.
=51	=51	=51	=51	=51	=51	=51
1D-M	D-:maj	4d-	-gain	D	58.529	.
.	.	4r	.	.	.	.
.	.	8f	I	.	.	.
.	.	4.f	got	.	.	.
=52	=52	=52	=52	=52	=52	=52
*>Letter>C	*>Letter>C	*>Letter>C	*>Letter>C	*>Letter>C	*>Letter>C	*>Letter>C
*>Label>Chorus	*>Label>Chorus	*>Label>Chorus	*>Label>Chorus	*>Label>Chorus	*>Label>Chorus	*>Label>Chorus
1D-M	D-:maj	2d-	stripes	.	59.668	newline
.	.	2r	.	.	.	.
=53	=53	=53	=53	=53	=53	=53
1D-M	D-:maj	4f	Stripes	.	60.83	.
.	.	8f	a-	.	.	.
.	.	[8f	-round	.	.	.
.	.	4f]	_	.	.	.
.	.	4g-	my	.	.	.
=54	=54	=54	=54	=54	=54	=54
1A-M	A-:maj	2a-	shoul-	.	61.992	.
.	.	[2e-	-ders	.	.	.
=55	=55	=55	=55	=55	=55	=55
1A-M	A-:maj	4e-]	_	.	63.154	.
.	.	4r	.	.	.	.
.	.	8g-	I	.	.	.
.	.	4.g-	got	.	.	.
=56	=56	=56	=56	=56	=56	=56
1A-M	A-:maj	2e-	chains	.	64.316	newline
.	.	2r	.	.	.	.
=57	=57	=57	=57	=57	=57	=57
1A-M	A-:maj	4a-	Chains	.	65.448	.
.	.	8a-	a-	.	.	.
.	.	[8a-	-round	.	.	.
.	.	4a-]	_	.	.	.
.	.	4c	my	.	.	.
=58	=58	=58	=58	=58	=58	=58
1D-M	D-:maj	[1d-	feet	.	66.58	.
=59	=59	=59	=59	=59	=59	=59
1D-M	D-:maj	4d-]	_	.	67.713	.
.	.	4r	.	.	.	.
.	.	8f	I	.	.	.
.	.	4.f	got	.	.	.
=60	=60	=60	=60	=60	=60	=60
1D-M	D-:maj	2d-	stripes	.	68.845	newline
.	.	2r	.	.	.	.
=61	=61	=61	=61	=61	=61	=61
1D-M	D-:maj	4f	Stripes	.	70.021	.
.	.	8f	a-	.	.	.
.	.	[8f	-round	.	.	.
.	.	4f]	_	.	.	.
.	.	4g-	my	.	.	.
=62	=62	=62	=62	=62	=62	=62
1A-M	A-:maj	2a-	shoul-	.	71.197	.
.	.	[2e-	-ders	.	.	.
=63	=63	=63	=63	=63	=63	=63
1A-M	A-:maj	4e-]	_	.	72.373	.
.	.	4r	.	.	.	.
.	.	8e-	And	.	.	.
.	.	4.f	them	.	.	.
=64	=64	=64	=64	=64	=64	=64
1A-M	A-:maj	2g-	chains	.	73.549	newline
.	.	2e-	them	.	.	.
=65	=65	=65	=65	=65	=65	=65
1A-M	A-:maj	2g-	chains	.	74.699	.
.	.	2e-	they're	.	.	.
=66	=66	=66	=66	=66	=66	=66
1A-M	A-:maj	4a-	'bout	.	75.848	.
.	.	8a-	to	.	.	.
.	.	[8a-	drag	.	.	.
.	.	4a-]	_	.	.	.
.	.	4c	me	.	.	.
=67	=67	=67	=67	=67	=67	=67
1D-M	D-:maj	2d-	down	.	76.997	.
.	.	2r	.	.	.	.
=68	=68	=68	=68	=68	=68	=68
*>Letter>D	*>Letter>D	*>Letter>D	*>Letter>D	*>Letter>D	*>Letter>D	*>Letter>D
*>Label>Modulation	*>Label>Modulation	*>Label>Modulation	*>Label>Modulation	*>Label>Modulation	*>Label>Modulation	*>Label>Modulation
*E-:	*E-:	*E-:	*	*	*E-:	*E-:
1E-M	E-:maj	1r	.	.	78.146	newline
=69	=69	=69	=69	=69	=69	=69
1E-M	E-:maj	2r	.	.	79.31	.
.	.	4g	On	.	.	.
.	.	8f#	a	.	.	.
.	.	[8g	Mon-	.	.	.
=70	=70	=70	=70	=70	=70	=70
*>Letter>B	*>Letter>B	*>Letter>B	*>Letter>B	*>Letter>B	*>Letter>B	*>Letter>B
*>Label>Verse	*>Label>Verse	*>Label>Verse	*>Label>Verse	*>Label>Verse	*>Label>Verse	*>Label>Verse
1E-M	E-:maj	8g]	_	.	80.475	newline
.	.	[8e-	-day	.	.	.
.	.	4e-]	_	.	.	.
.	.	4r	.	.	.	.
.	.	4g	My	.	.	.
=71	=71	=71	=71	=71	=71	=71
1E-M	E-:maj	8g	ma-	.	81.632	.
.	.	4g	-ma	.	.	.
.	.	4.g	come	.	.	.
.	.	8a-	to	.	.	.
.	.	[8b-	see	.	.	.
=72	=72	=72	=72	=72	=72	=72
1B-M	B-:maj	8b-]	_	.	82.79	.
.	.	[8f	me	E	.	.
.	.	4f]	_	.	.	.
.	.	2r	.	.	.	.
=73	=73	=73	=73	=73	=73	=73
1B-M	B-:maj	2r	.	.	83.947	.
.	.	4a-	On	.	.	.
.	.	8g	a	.	.	.
.	.	[8a-	Tues-	.	.	.
=74	=74	=74	=74	=74	=74	=74
1B-M	B-:maj	2a-]	_	.	85.105	newline
.	.	4f	-day	.	.	.
.	.	4b-	they	.	.	.
=75	=75	=75	=75	=75	=75	=75
1B-M	B-:maj	4b-	caught	.	86.257	.
.	.	8r	.	.	.	.
.	.	[8b-	me	.	.	.
.	.	8b-]	_	.	.	.
.	.	8a-	with	.	.	.
.	.	8d	a	.	.	.
.	.	[8e-	file	F	.	.
=76	=76	=76	=76	=76	=76	=76
1E-M	E-:maj	2e-]	_	.	87.41	.
.	.	2r	.	.	.	.
=77	=77	=77	=77	=77	=77	=77
1E-M	E-:maj	2r	.	.	88.562	.
.	.	4g	On	.	.	.
.	.	8f#	a	.	.	.
.	.	[8g	Wednes-	.	.	.
=78	=78	=78	=78	=78	=78	=78
1E-M	E-:maj	8g]	_	.	89.715	newline
.	.	[8e-	-day	.	.	.
.	.	4e-]	_	.	.	.
.	.	4r	.	.	.	.
.	.	4g	I'm	.	.	.
=79	=79	=79	=79	=79	=79	=79
1E-M	E-:maj	4g	down	.	90.843	.
.	.	4g	in	.	.	.
.	.	4a-	sol-	.	.	.
.	.	8b-	-i-	.	.	.
.	.	[8b-	-ta-	.	.	.
=80	=80	=80	=80	=80	=80	=80
1B-M	B-:maj	8b-]	_	.	91.972	.
.	.	8f	-ry	E	.	.
.	.	4r	.	.	.	.
.	.	2r	.	.	.	.
=81	=81	=81	=81	=81	=81	=81
1B-M	B-:maj	2r	.	.	93.1	.
.	.	4f	On	.	.	.
.	.	8g	a	.	.	.
.	.	[8a-	Thurs-	.	.	.
=82	=82	=82	=82	=82	=82	=82
1B-M	B-:maj	4a-]	_	.	94.229	newline
.	.	8f	-day	.	.	.
.	.	4f	Lord	.	.	.
.	.	[8f	I	.	.	.
.	.	4f]	_	.	.	.
=83	=83	=83	=83	=83	=83	=83
1B-M	B-:maj	4a-	start	.	95.386	.
.	.	4f	on	.	.	.
.	.	4f	bread	.	.	.
.	.	4f	and	.	.	.
=84	=84	=84	=84	=84	=84	=84
1B-M	B-:maj	4b-	wa-	.	96.544	.
.	.	8b-	-ter	.	.	.
.	.	4.b-	for	.	.	.
.	.	4d	a	.	.	.
=85	=85	=85	=85	=85	=85	=85
1E-M	E-:maj	4e-	while	F	97.701	.
.	.	4r	.	.	.	.
.	.	8g	I	.	.	.
.	.	4.g	got	.	.	.
=86	=86	=86	=86	=86	=86	=86
*>Letter>C	*>Letter>C	*>Letter>C	*>Letter>C	*>Letter>C	*>Letter>C	*>Letter>C
*>Label>Chorus	*>Label>Chorus	*>Label>Chorus	*>Label>Chorus	*>Label>Chorus	*>Label>Chorus	*>Label>Chorus
1E-M	E-:maj	2e-	stripes	.	98.858	newline
.	.	2r	.	.	.	.
=87	=87	=87	=87	=87	=87	=87
1E-M	E-:maj	4g	Stripes	.	100.029	.
.	.	8g	a-	.	.	.
.	.	[8g	-round	.	.	.
.	.	4g]	_	.	.	.
.	.	4a-	my	.	.	.
=88	=88	=88	=88	=88	=88	=88
1B-M	B-:maj	2b-	shoul-	.	101.2	.
.	.	[2f	-ders	.	.	.
=89	=89	=89	=89	=89	=89	=89
1B-M	B-:maj	4f]	_	.	102.372	.
.	.	4r	.	.	.	.
.	.	8a-	I	.	.	.
.	.	4.a-	got	.	.	.
=90	=90	=90	=90	=90	=90	=90
1B-M	B-:maj	2f	chains	.	103.543	newline
.	.	2r	.	.	.	.
=91	=91	=91	=91	=91	=91	=91
1B-M	B-:maj	4b-	Chains	.	104.671	.
.	.	8b-	a-	.	.	.
.	.	[8b-	-round	.	.	.
.	.	4b-]	_	.	.	.
.	.	4b-	my	.	.	.
=92	=92	=92	=92	=92	=92	=92
1E-M	E-:maj	1b-	feet	.	105.798	.
=93	=93	=93	=93	=93	=93	=93
1E-M	E-:maj	4g	_	.	106.926	.
.	.	4r	.	.	.	.
.	.	8g	I	.	.	.
.	.	4.g	got	.	.	.
=94	=94	=94	=94	=94	=94	=94
1E-M	E-:maj	2e-	stripes	.	108.054	newline
.	.	2r	.	.	.	.
=95	=95	=95	=95	=95	=95	=95
1E-M	E-:maj	4g	Stripes	.	109.237	.
.	.	8g	a-	.	.	.
.	.	[8g	-round	.	.	.
.	.	4g]	_	.	.	.
.	.	4a-	my	.	.	.
=96	=96	=96	=96	=96	=96	=96
1B-M	B-:maj	2b-	shoul-	.	110.42	.
.	.	[2f	-ders	.	.	.
=97	=97	=97	=97	=97	=97	=97
1B-M	B-:maj	4f]	_	.	111.603	.
.	.	4r	.	.	.	.
.	.	8f	And	.	.	.
.	.	4.g	them	.	.	.
=98	=98	=98	=98	=98	=98	=98
1B-M	B-:maj	2a-	chains	.	112.786	newline
.	.	2f	them	.	.	.
=99	=99	=99	=99	=99	=99	=99
1B-M	B-:maj	2a-	chains	.	113.964	.
.	.	2f	they're	.	.	.
=100	=100	=100	=100	=100	=100	=100
1B-M	B-:maj	4b-	'bout	.	115.143	.
.	.	8b-	to	.	.	.
.	.	[8b-	drag	.	.	.
.	.	4b-]	_	.	.	.
.	.	4d	me	.	.	.
=101	=101	=101	=101	=101	=101	=101
1E-M	E-:maj	1e-	down	.	116.322	.
1r;	1r	r;	.	.	122.069	.
1r;	1r	r;	.	.	125.309	.
*-	*-	*-	*-	*-	*-	*-
!!!BillboardChartDate: 1959/08/24
!!!BillboardPeak: 43
!!!BillboardWeeksOnChart: 11
!!!COC: Johnny Cash
!!!ENC: Nathaniel Condit-Schultz
!!!EST: Awating manual error checking and editing.
!!!OTL: I Got Stripes
!!!RDF**chordsym: original McGill chord annotation + (implied pitch class set, with bass pitch in first position)
!!!RDF**harmony: **recip + pitch class of root + harmonic quality
!!!RDF**leadinstrument: original McGill primary instrumentation annotation
!!!RDF**phrase: newline = linebreak in original McGill transcription
!!!RDF**timestamp: McGill audio timestamp in seconds
!!!RDT: 2017/01/12/
!!!SampleActualRank: 55
!!!SampleID#: 1160
!!!SampleTargetRank: 54
!!!MBID: 660fc685-7bd0-4663-a3c2-419e1cdd3fd6